assets/icons/visual.svg

<?xml version="1.0" encoding="UTF-8"?>
<svg enable-background="new 0 0 512 512" version="1.1" viewBox="0 0 512 512" xml:space="preserve" xmlns="http://www.w3.org/2000/svg">
		<path d="m194.24 119.99c-32.067-32.193-72.019-68.088-109.13-93.23-16.08-10.892-29.916-18.546-41.126-22.749-16.462-6.17-28.919-5.186-37.03 2.925s-9.095 20.57-2.925 37.029c4.204 11.211 11.857 25.047 22.749 41.126 7.434 10.974 16.172 22.703 25.968 34.899h-52.738v392h512v-392h-317.76zm18.239 63.255c23.828 27.026 43.254 52.478 55.469 72.845-2.275 1.59-4.428 3.393-6.439 5.404-2.012 2.012-3.815 4.165-5.405 6.441-20.367-12.215-45.82-31.641-72.846-55.469l29.221-29.221zm-181.08-151.86c7.219 2.381 21.177 8.819 45.412 26.159 28.488 20.385 62.065 49.499 94.546 81.979 7.178 7.178 14.154 14.376 20.893 21.533l-31.18 31.18c-7.157-6.739-14.355-13.715-21.533-20.894-32.48-32.48-61.594-66.057-81.979-94.546-17.34-24.234-23.778-38.192-26.159-45.411zm-1.391 118.61h48.138c12.46 14.03 25.96 28.344 40.177 42.561 17.165 17.165 34.3 33.131 50.809 47.439h-139.12v-90zm452 332h-452v-212h176.04c15.127 11.404 29.156 20.773 41.491 27.636 0.466 16.355 8.106 32.249 19.276 43.418 18.619 18.619 74.194 26.271 85.146 27.616l19.057 2.34-2.341-19.057c-1.275-10.383-8.221-60.872-24.806-81.953h138.14v212zm-199.28-199.28c9.816-9.815 27.33-4.489 37.123 5.304 5.742 5.742 11.871 26.444 15.922 47.741-21.299-4.051-42-10.18-47.742-15.921-9.845-9.844-15.089-27.339-5.303-37.124zm199.28-42.717h-188.74c-15.367-25.452-40.009-56.959-70.331-90h259.07v90z" fill="#bebec3"/>
		<rect x="390" y="179.99" width="62" height="30" fill="#bebec3"/>
		<rect x="300" y="179.99" width="60" height="30" fill="#bebec3"/>
</svg>

<?xml version="1.0" encoding="iso-8859-1"?>
<!-- Generator: Adobe Illustrator 19.0.0, SVG Export Plug-In . SVG Version: 6.00 Build 0)  -->
<svg xmlns="http://www.w3.org/2000/svg" xmlns:xlink="http://www.w3.org/1999/xlink" version="1.1" id="Capa_1" x="0px" y="0px" viewBox="0 0 512 512" style="enable-background:new 0 0 512 512;" xml:space="preserve" width="512px" height="512px">
<g>
	<g>
		<path d="M194.236,119.986c-32.067-32.193-72.019-68.088-109.134-93.23C69.022,15.864,55.186,8.21,43.976,4.007    c-16.462-6.17-28.919-5.186-37.03,2.925c-8.111,8.111-9.095,20.57-2.925,37.029C8.225,55.172,15.878,69.008,26.77,85.087    c7.434,10.974,16.172,22.703,25.968,34.899H0v392h512v-392H194.236z M212.475,183.241c23.828,27.026,43.254,52.478,55.469,72.845    c-2.275,1.59-4.428,3.393-6.439,5.404c-2.012,2.012-3.815,4.165-5.405,6.441c-20.367-12.215-45.82-31.641-72.846-55.469    L212.475,183.241z M31.391,31.377c7.219,2.381,21.177,8.819,45.412,26.159c28.488,20.385,62.065,49.499,94.546,81.979    c7.178,7.178,14.154,14.376,20.893,21.533l-31.18,31.18c-7.157-6.739-14.355-13.715-21.533-20.894    c-32.48-32.48-61.594-66.057-81.979-94.546C40.21,52.554,33.772,38.596,31.391,31.377z M30,149.986h48.138    c12.46,14.03,25.96,28.344,40.177,42.561c17.165,17.165,34.3,33.131,50.809,47.439H30V149.986z M482,481.986H30v-212h176.041    c15.127,11.404,29.156,20.773,41.491,27.636c0.466,16.355,8.106,32.249,19.276,43.418c18.619,18.619,74.194,26.271,85.146,27.616    l19.057,2.34l-2.341-19.057c-1.275-10.383-8.221-60.872-24.806-81.953H482V481.986z M282.718,282.703    c9.816-9.815,27.33-4.489,37.123,5.304c5.742,5.742,11.871,26.444,15.922,47.741c-21.299-4.051-42-10.18-47.742-15.921    C278.176,309.983,272.932,292.488,282.718,282.703z M482,239.986H293.264c-15.367-25.452-40.009-56.959-70.331-90H482V239.986z" fill="#bebec3"/>
	</g>
</g>
<g>
	<g>
		<rect x="390" y="179.99" width="62" height="30" fill="#bebec3"/>
	</g>
</g>
<g>
	<g>
		<rect x="300" y="179.99" width="60" height="30" fill="#bebec3"/>
	</g>
</g>
<g>
</g>
<g>
</g>
<g>
</g>
<g>
</g>
<g>
</g>
<g>
</g>
<g>
</g>
<g>
</g>
<g>
</g>
<g>
</g>
<g>
</g>
<g>
</g>
<g>
</g>
<g>
</g>
<g>
</g>
</svg>
